!!!!SEGMENT: pl-kk--kk-i-293--002_anonim-surgens-jesus.krn
!!!id: 17xx:2045
!!!COM: Anonim
!!!OTL: Surgens Jesus
!!!PDT:
!!!SMS-siglum: PL-Kk
!!!SMS-shelfmark: Kk.I.293
!!!NIFC-rismID: 1001144448
!!!URL-scan: http://repozytorium.nifc.pl/skany/pl-kk-nut--i-293
!!!ONB-nifc: UWAGA: utwory w zbiorze: 1. Venit caeli nuntius, 2. Surgens Jesus
!!!SMS-variant:
!!!SMS-altvar:
**kern	**text
*I"Voce	*
*I'V.	*
*clefF4	*
*k[]	*
*M2/1	*
*met(c|)	*
=1-	=1-
!LO:TX:t=Pro Feria 3tia Paschatis.	!
00r	.
=2-	=2-
.	.
=3-	=3-
00r	.
=4-	=4-
.	.
=5-	=5-
00r	.
=6-	=6-
.	.
=7-	=7-
1r	.
2.AA/	Sur-
4BB/	.
=8-	=8-
4C/	.
4AA/	.
4D\	.
4E\	.
4F\	.
4D\	.
*2\right	*
!LO:TX:t=P:problem:kreska pseudotaktowa	!
2A\	-gens
=9-	=9-
2E\	Je-
2D\	.
!LO:TX:t=P:problem:kreska pseudotaktowa	!
1AA/	-sus
=10-	=10-
1r	.
2r	.
2.AA/	Sur-
=11-	=11-
.	.
4BB/	.
4C/	.
4AA/	.
4D\	.
4E\	.
4F\	.
4D\	.
=12-	=12-
2A\	.
2D\	-gens
1D\	Je-
=13-	=13-
!LO:TX:t=P:problem:kreska pseudotaktowa	!
1E\	-sus
2r	.
2.AA/	Sur-
=14-	=14-
.	.
4BB/	.
4C/	.
4AA/	.
2E\	.
!LO:TX:t=P:problem:kreska pseudotaktowa	!
2D\	-gens
!!LO:LB:g=original
=15-	=15-
0A\	JE-
=16-	=16-
0E\	-SUS
=17-	=17-
1.BB/	Do-
2BB/	-mi-
=18-	=18-
2.E\	-nus
4F\	.
2G\	.
2.A\	no-
=19-	=19-
.	.
4G\	.
4F\	.
4E\	.
1D\	-ster
=20-	=20-
2AA/	Do-
2.A\	.
4A\	-mi-
2G\	.
=21-	=21-
1F\	-nus
1E\	nos-
=22-	=22-
!LO:TX:t=P:problem:kreska pseudotaktowa	!
1AA/	-ter
!LO:TX:t=P:problem:kreska pseudotaktowa	!
1r	.
=23-	=23-
0D\	stans
=24-	=24-
2F\	in
1F\	me-
2F\	-di-
=25-	=25-
2D\	-o
2D\	Di-
2AA/	-sci-
2E\	-pu-
=26-	=26-
2BB/	-lo-
2F\	-rum
!!LO:LB:g=original
2D#X\	su-
2E\	-o-
=27-	=27-
1AA/	-rum
2.D\	di-
4E\	.
=28-	=28-
4F\	.
4G\	.
2.A\	.
4G\	.
4F\	.
4E\	.
=29-	=29-
1D\	.
1AA/	.
=30-	=30-
0E\;	-xit
=31||-	=31||-
!LO:TX:t=2	!
0A\	Pax
=32-	=32-
!LO:TX:t=2	!
0E\	Vo-
=33-	=33-
!LO:TX:t=2	!
0F\	.
=34-	=34-
!LO:TX:t=P:problem:kreska pseudotaktowa	!
!LO:TX:t=2	!
0E\	-bis
=35-	=35-
1r	.
2r	.
2E\	al-
=36-	=36-
4D\	-le-
4E\	.
4F\	.
4G\	.
2A\	-lu-
2E\	.
=37-	=37-
1B\	-ia
0r	.
=38-	=38-
.	.
2r	.
2F\	al-
=39-	=39-
4E\	-le-
4F\	.
4G\	.
4A\	.
2B\	-lu-
!LO:TX:t=P:problem:kreska pseudotaktowa	!
2E\	.
!!LO:LB:g=original
=40-	=40-
1B\	-ia
2r	.
*	*ij
2BB/	al-
=41-	=41-
4AA/	-le-
4BB/	.
4C/	.
4D/	lu-
1E\	-ia
=42-	=42-
2.C/	al-
4D/	-le-
1E\	-lu-
=43-	=43-
0AA/;	-ia
*	*Xij
=44||-	=44||-
*M3/2	*
2E\	Ga-
2AA/	-vi-
2E\	-si
=45-	=45-
1AA/	sunt
2A\	ga-
=46-	=46-
2E\	-vi-
2A\	-si
2D\	s(un)t
=47-	=47-
2AA/	Di-
2D/	-sci-
2BB/	-pu-
=48-	=48-
*M2/1	*
*met(c|)	*
1AA/	-li
2.C/	vi-
4D/	.
=49-	=49-
1E\	.
!LO:TX:t=P:problem:kreska pseudotaktowa	!
1BB/	-so
=50-	=50-
2.F\	Do-
!LO:TX:t=P:problem:kreska pseudotaktowa	!
4G\	.
!!LO:LB:g=original
2A\	.
2A\	-mi-
=51-	=51-
!LO:TX:t=P:problem:kreska pseudotaktowa	!
1E\	-no
2.BB/	vi-
4C/	.
=52-	=52-
1D\	.
!LO:TX:t=P:problem:kreska pseudotaktowa	!
1AA/	-so
=53-	=53-
2.E\	Do-
4E\	-mi-
!LO:TX:t=P:problem:kreska pseudotaktowa	!
1BB/	-no
=54-	=54-
2r	.
2B\	al-
2G\	-le-
1A\	-lu-
=55-	=55-
.	.
2F\	-ia
!LO:TX:t=P:problem:kreska pseudotaktowa	!
1G-X\	al-
=56-	=56-
2E\	-le-
1F\	.
2D\	-lu-
=57-	=57-
1E\	-ia
2C/	.
1D\	.
=58-	=58-
.	.
!LO:TX:t=P:problem:kreska pseudotaktowa	!
*	*ij
2BB/	al-
1C/	-le-
=59-	=59-
2AA/	-lu-
!LO:TX:t=P:problem:ozdobna ligatura	!
[>2BB/	-ia
2BB/]	.
!LO:TX:t=P:problem:kreska pseudotaktowa	!
2GG/	al-
=60-	=60-
2AA/	-le-
2C/	-lu-
1BB/	-ia
=61-	=61-
!LO:TX:t=P:problem:kreska pseudotaktowa	!
1E\	al-
!!LO:LB:g=original
1E\	-le-
=62-	=62-
2C/	-lu-
2D/	.
1BB/	-ia
=63-	=63-
2r	.
2B\	al-
2G\	-le-
1A\	-lu-
=64-	=64-
.	.
2F\	-ia
!LO:TX:t=P:problem:kreska pseudotaktowa	!
1G-X\	al-
=65-	=65-
2E\	-le-
1F\	-lu-
2D\	-ia
=66-	=66-
1E\	al-
2C/	-le-
1D\	-lu-
=67-	=67-
.	.
!LO:TX:t=P:problem:kreska pseudotaktowa	!
2BB/	-ia
1C/	al-
=68-	=68-
2AA/	-le-
2BB/	-lu-
2AA/	-ia
1A\	al-
=69-	=69-
.	.
2F\	-le-
!LO:TX:t=P:problem:kreska pseudotaktowa	!
1G-X\	-lu-
=70-	=70-
2E\	-ia
1F\	al-
2D\	-le-
=71-	=71-
1E\	-lu-
2C/	-ia
1D\	.
=72-	=72-
.	.
!LO:TX:t=P:problem:kreska pseudotaktowa	!
2BB/	al-
1C/	-le-
=73-	=73-
1AA/	-lu-
1E\	-ia
=74-	=74-
2r	.
2.A\	al-
4G\	-le-
4F\	-lu-
4E\	-ia
*	*Xij
=75-	=75-
2D/	al-
2C/	-le-
1D\	-lu-
=76-	=76-
00AA/;	-ia.
==	==
*-	*-
!!!ENC:Kamil Watkowski
!!!END:2021-02-19
!!!EED: Leszek Kubiak
!!!EST: 2021-03-04
